static/images/icon/phone_icon.svg

<svg viewBox="0 0 33.04 45.89" xmlns="http://www.w3.org/2000/svg"><path d="m29 0h-25a4 4 0 0 0 -4 4v37.89a4 4 0 0 0 4 4h25a4 4 0 0 0 4-4v-37.89a4 4 0 0 0 -4-4zm1.64 41.89a1.65 1.65 0 0 1 -1.64 1.65h-25a1.65 1.65 0 0 1 -1.65-1.65v-37.89a1.65 1.65 0 0 1 1.65-1.65h25a1.65 1.65 0 0 1 1.68 1.65z"/><rect height="32.32" rx=".47" width="22.46" x="5.29" y="5.38"/><path d="m16.52 38.87a1.41 1.41 0 1 0 1.41 1.41 1.41 1.41 0 0 0 -1.41-1.41z"/></svg>

<svg xmlns="http://www.w3.org/2000/svg" viewBox="0 0 33.04 45.89"><title>Asset 8</title><path d="M29,0H4A4,4,0,0,0,0,4V41.89a4,4,0,0,0,4,4H29a4,4,0,0,0,4-4V4A4,4,0,0,0,29,0Zm1.64,41.89A1.65,1.65,0,0,1,29,43.54H4a1.65,1.65,0,0,1-1.65-1.65V4A1.65,1.65,0,0,1,4,2.35H29A1.65,1.65,0,0,1,30.68,4Z"/><rect x="5.29" y="5.38" width="22.46" height="32.32" rx="0.47"/><path d="M16.52,38.87a1.41,1.41,0,1,0,1.41,1.41A1.41,1.41,0,0,0,16.52,38.87Z"/></svg>
